packages/core/src/svgs/tokens/branded/PROPS.svg

<svg width="24" height="24" viewBox="0 0 24 24" fill="none" xmlns="http://www.w3.org/2000/svg">
<path fill-rule="evenodd" clip-rule="evenodd" d="M7.62498 7.62498H13.8749V2.18C13.1686 2.02187 12.7537 2 11.9999 2C6.47686 2 2 6.47685 2 11.9999C2 15.8975 4.37187 19.2712 7.62498 20.9211V7.62498ZM16.3749 3.07874V16.3749H10.125V21.7562C10.8312 21.9137 11.2463 22 11.9999 22C17.5231 22 22 17.5231 22 11.9999C22 8.10311 19.628 4.72874 16.3749 3.07874ZM13.8749 13.8749H10.125V10.125H13.8749V13.8749Z" fill="#24D2FD"/>
</svg>

<svg xmlns="http://www.w3.org/2000/svg" width="24" height="24" fill="none" viewBox="0 0 24 24">
    <path fill="#24D2FD" fill-rule="evenodd" d="M7.625 7.625h6.25V2.18C13.169 2.022 12.754 2 12 2 6.477 2 2 6.477 2 12c0 3.898 2.372 7.271 5.625 8.921zm8.75-4.546v13.296h-6.25v5.381c.706.158 1.121.244 1.875.244 5.523 0 10-4.477 10-10 0-3.897-2.372-7.271-5.625-8.921m-2.5 10.796h-3.75v-3.75h3.75z" clip-rule="evenodd"/>
</svg>
